svg/uf011b-intellect.svg

<svg height="960" style="" width="1200" xmlns="http://www.w3.org/2000/svg"><path d="m599.49321 0-212.22974 212.48311 53.41217 53.71622 158.81757-158.7669 158.76688 158.7669 53.71623-53.71622zm0 132.82096c-11.93513 42.8108-26.99189 180.06486-34.25676 272.43242-.25946 0-.50676.30404-.50676.30404-65.64323-47.74054-160.63783-111.83108-195.4054-127.39864 19.71892 32.43243 95.7365 118.01151 151.52028 176.90878-2.59459 7.7838-4.15542 15.85743-4.15542 24.67905 0 7.52433 1.32567 14.53785 3.14189 21.2838-58.37837 56.56216-137.80136 139.07836-158.81757 170.47296 35.28648-14.01081 132.85541-74.24593 200.57433-119.39188 1.03784.51892 2.35745 1.30539 3.39529 1.82431 7.0054 92.10811 22.02971 229.62162 33.44593 272.43244 11.67568-42.81082 26.9919-180.57769 34.25677-272.6858h.25336c65.64324 47.74054 160.89123 112.08446 195.6588 127.65203-19.97838-32.43244-96.28785-118.82231-152.33109-177.71961 2.33514-7.52433 3.90203-15.56554 3.90203-23.86825 0-7.26486-1.28108-14.03107-2.83783-20.77702 58.8973-56.3027 138.5554-139.06622 159.83107-170.97974-35.54594 14.01082-133.36216 74.45475-201.08108 119.34124-1.03784-.51892-1.85067-1.00136-2.88851-1.52028-7.00541-92.10811-22.02365-230.17905-33.69933-272.98985zm-301.26688 168.39526-177.7196 178.02364 175.13512 175.38853 53.71623-53.71623-121.67229-121.6723 124.25674-124.30742zm606.13175 3.39525-53.71623 53.71624 121.6723 121.67229-124.25675 124.25674 53.71621 53.46285 177.71969-177.71959zm-463.68244 389.1892-53.41217 53.71622 212.22974 212.48311 212.48311-212.48311-53.71623-53.71622-158.76688 158.7669z" style="stroke-width:25.946"/></svg>

<svg xmlns="http://www.w3.org/2000/svg" width="1200" height="960">
    <path d="m599.493 0-212.23 212.483 53.413 53.716 158.817-158.767L758.26 266.2l53.716-53.716zm0 132.821c-11.935 42.81-26.992 180.065-34.257 272.432-.259 0-.506.304-.506.304-65.644-47.74-160.638-111.83-195.406-127.398 19.72 32.432 95.737 118.011 151.52 176.909-2.594 7.783-4.155 15.857-4.155 24.679 0 7.524 1.326 14.537 3.142 21.283-58.378 56.563-137.801 139.079-158.818 170.473 35.287-14.01 132.856-74.246 200.575-119.392 1.038.52 2.357 1.306 3.395 1.825 7.005 92.108 22.03 229.621 33.446 272.432 11.676-42.81 26.992-180.577 34.257-272.686h.253c65.643 47.741 160.891 112.085 195.659 127.652-19.978-32.432-96.288-118.822-152.331-177.72 2.335-7.523 3.902-15.565 3.902-23.867 0-7.265-1.281-14.031-2.838-20.777 58.897-56.303 138.555-139.067 159.831-170.98C801.616 302 703.8 362.445 636.081 407.33c-1.038-.519-1.85-1.001-2.888-1.52-7.006-92.108-22.024-230.18-33.7-272.99M298.226 301.216 120.506 479.24l175.136 175.388 53.716-53.716L227.686 479.24l124.257-124.308zm606.132 3.395-53.716 53.717L972.314 480 848.057 604.257l53.717 53.463L1079.494 480zm-463.682 389.19-53.413 53.716L599.493 960l212.483-212.483L758.26 693.8 599.493 852.568z" style="stroke-width:25.946"/>
</svg>
